fec/fec/static/icons/output/bluesky-circle.svg

<svg width="20" height="20" viewBox="0 0 20 20" xmlns="http://www.w3.org/2000/svg"><g><circle fill="#000000" cx="10" cy="10" r="10"></circle><path d="M10.0000352,10.3856573 C10.5433837,9.10933715 12.0230992,6.73077034 13.3989118,5.55774759 C14.3915956,4.71132427 16,4.05641006 16,6.14038179 C16,6.55657929 15.7898978,9.63665693 15.6666709,10.1366955 C15.2383355,11.8751753 13.6774964,12.3185836 12.2891045,12.0502123 C14.7159868,12.5193274 15.3333625,14.0732066 14.0000669,15.6270858 C11.4678748,18.5782061 10.360571,14.8866387 10.0767106,13.9407246 C10.0246971,13.767316 10.0003579,13.6861937 10,13.7551746 C9.99964,13.6861914 9.9753029,13.7673158 9.92328942,13.9407246 C9.63955315,14.8866387 8.53226998,18.5783001 5.9999331,15.6270858 C4.66661678,14.0732066 5.28397178,12.5192334 7.71089549,12.0502123 C6.32246225,12.3185836 4.76160243,11.875173 4.33332908,10.1366955 C4.21009808,9.63660993 4,6.55653229 4,6.14038179 C4,4.05641006 5.60844574,4.71132427 6.6010882,5.55774759 C7.97692979,6.73079384 9.45672801,9.10924316 10.0000352,10.3856573 Z" fill="#FFFFFF"></path></g></svg>

<svg width="20" height="20" viewBox="0 0 20 20" xmlns="http://www.w3.org/2000/svg"><g fill="none" fill-rule="evenodd"><circle fill="#000" cx="10" cy="10" r="10"/><path d="M10 10.386c.543-1.277 2.023-3.655 3.399-4.828C14.392 4.71 16 4.056 16 6.14c0 .417-.21 3.497-.333 3.997-.429 1.738-1.99 2.182-3.378 1.913 2.427.47 3.044 2.023 1.711 3.577-2.532 2.951-3.64-.74-3.923-1.686-.052-.174-.077-.255-.077-.186 0-.069-.025.012-.077.186-.283.946-1.39 4.637-3.923 1.686-1.333-1.554-.716-3.108 1.71-3.577-1.388.269-2.948-.175-3.377-1.913C4.21 9.637 4 6.557 4 6.14c0-2.084 1.608-1.429 2.601-.582C7.977 6.73 9.457 9.109 10 10.386Z" fill="#FFF" fill-rule="nonzero"/></g></svg>
